X:1
T:Title
%%score { 1 | 2 }
L:1/8
M:6/8
K:C
V:1 treble nm="Grand Piano"
V:2 bass 
V:1
 z3 z2[Q:1/4=84] [EG] | [EG]>[FA][EG] [EG]EG | [Ac]>[GB][FA] [EG]2 [EG] | %3
 [FA]>[GB][Gc] [Gc][FB][Ec] | [^Fe]>[Fd][Fc] [Gd]2 [=FG] | [EG]>[FA][EG] [EG][CE][EG] | %6
 [Ec]>[Fd][Ge] [Af]2 [Af] | e>dc cBc | [Fd][FA][FB] .[Ec]3 | d>dd dBd | f>ed .[Ge]3 | %11
 [Ge]>[Fd][Ec] [Gc][FB][Ec] | [^Fe]>[Fd][Fc] .[Gd]3 | [EG]>[FA][EG] [EG][CE][EG] | %14
 [Ec]>[Fd][Ge] [Af]2 [Af] | e>dc cBc |[M:7/4] [Fd][FA][FB] .[Ec]3 z2 z2 z4 |] %17
V:2
 z3 z2 [C,C] | [C,C]>[C,C][C,C] [C,C][C,G,C][E,C] | [F,C]>[F,C][F,C] [C,C]2 [C,C] | %3
 [F,C]>[F,D][E,C] [E,G,][D,G,][C,G,] | [D,C]>[D,C][D,C] [G,B,]2 [G,B,] | %5
 [C,C]>[C,C][C,C] [C,C][C,G,][C,C] | [C,C]>[C,C][C,C] [F,C]2 [F,C] | %7
 [G,CG]>[G,B,F][G,CE] [G,CE][G,D][K:bass][G,E] | [G,,G,][G,,G,][G,,G,] .[C,G,]3 | %9
 [G,B,G]>[G,B,G][G,B,G] [G,B,G][G,DG][G,CG] | [G,DG]>[G,CG][G,B,G][K:bass] .[C,C]3 | %11
 [C,C]>[C,G,][C,G,] [E,G,][D,G,][C,G,] | [D,C]>[D,C][D,C] .[G,B,]3 | %13
 [C,C]>[C,C][C,C] [C,C][C,G,][C,C] | [C,C]>[C,C][C,C] [F,C]2 [F,C] | %15
 [G,CG]>[G,B,F][G,CE] [G,CE][G,D][K:bass][G,E] |[M:7/4] [G,,G,][G,,G,][G,,G,] .[C,G,]3 z2 z2 z4 |] %17

